X: 1
T: An Oidche Bha na Gobhair Aguin
T: The Night the Goats Came Home
C: Trad
O: Scotland, Cape Breton
M: C 
L: 1/8
R: Reel
K: G
e|"G"dG G/G/G dGBd|e/e/e g2 deBe|dG G/G/G dBBe|eddB "D"A2A:|
|:d|"C"e/e/e g2 dBBd|e/e/e g2 dB g2|"G"b/a/g/f/ g2 dBBd|egdB "D"A2A:|
e|"G"dGBG dGBG|ef g2 dBBg|dGBG dGBG|egdB "D"A2A:|
|:d|"C"eB g2 dBBd|eB g2 de gb|"G"afge dBBd|egdB "D"A2A:|]